assets/1. F-P/Mount fuji/Color/Mount.Fuji-color.svg

<svg width="100%" height="100%" viewBox="0 0 32 32" fill="none" xmlns="http://www.w3.org/2000/svg">
<path d="M29.9856 24.4008L24.8518 17.5647L19.391 14.3008L14.7429 14.271L7.5081 17.9826L2.2356 24.4008V29.2568C2.2356 29.8339 2.7014 30.3016 3.26631 30.3016H28.945C29.5198 30.3016 29.9757 29.8339 29.9757 29.2667V24.4008H29.9856Z" fill="url(#paint0_linear_18_4988)"/>
<path d="M16.1106 16.3706L17.1017 20.3509C17.6071 21.9928 18.7865 22.341 20.0749 22.341H20.1244C21.0858 22.341 22.0471 22.9779 22.612 23.8336L27.0124 30.3016L28.9251 30.3215C29.5099 30.3215 29.9856 29.8439 29.9856 29.2568V24.4008L24.8518 17.5647L16.1106 16.3706Z" fill="url(#paint1_linear_18_4988)"/>
<path d="M16.1106 16.3706L17.1017 20.3509C17.6071 21.9928 18.7865 22.341 20.0749 22.341H20.1244C21.0858 22.341 22.0471 22.9779 22.612 23.8336L27.0124 30.3016L28.9251 30.3215C29.5099 30.3215 29.9856 29.8439 29.9856 29.2568V24.4008L24.8518 17.5647L16.1106 16.3706Z" fill="url(#paint2_linear_18_4988)"/>
<g filter="url(#filter0_i_18_4988)">
<path d="M20.7983 12.1515C20.4415 11.6739 19.946 11.3953 19.4108 11.3953H13.6824C13.2265 11.3953 12.7806 11.6042 12.4436 11.9824L7.50806 17.9826C7.87475 18.1817 8.28109 18.3508 8.97484 18.3508C10.6795 18.3508 10.6795 17.3557 12.394 17.3557C14.0987 17.3557 14.0987 18.3508 15.8132 18.3508C17.5179 18.3508 17.5179 17.3557 19.2225 17.3557C20.9272 17.3557 20.9272 18.3508 22.6417 18.3508C23.8211 18.3508 24.1878 17.8732 24.8617 17.5846L20.7983 12.1515Z" fill="#DAD3E0"/>
</g>
<path d="M20.7983 12.1515C20.4415 11.6739 19.946 11.3953 19.4108 11.3953H13.6824C13.2265 11.3953 12.7806 11.6042 12.4436 11.9824L7.50806 17.9826C7.87475 18.1817 8.28109 18.3508 8.97484 18.3508C10.6795 18.3508 10.6795 17.3557 12.394 17.3557C14.0987 17.3557 14.0987 18.3508 15.8132 18.3508C17.5179 18.3508 17.5179 17.3557 19.2225 17.3557C20.9272 17.3557 20.9272 18.3508 22.6417 18.3508C23.8211 18.3508 24.1878 17.8732 24.8617 17.5846L20.7983 12.1515Z" fill="url(#paint3_radial_18_4988)"/>
<path d="M20.7983 12.1515C20.4415 11.6739 19.946 11.3953 19.4108 11.3953H13.6824C13.2265 11.3953 12.7806 11.6042 12.4436 11.9824L7.50806 17.9826C7.87475 18.1817 8.28109 18.3508 8.97484 18.3508C10.6795 18.3508 10.6795 17.3557 12.394 17.3557C14.0987 17.3557 14.0987 18.3508 15.8132 18.3508C17.5179 18.3508 17.5179 17.3557 19.2225 17.3557C20.9272 17.3557 20.9272 18.3508 22.6417 18.3508C23.8211 18.3508 24.1878 17.8732 24.8617 17.5846L20.7983 12.1515Z" fill="url(#paint4_radial_18_4988)"/>
<path d="M20.7983 12.1515C20.4415 11.6739 19.946 11.3953 19.4108 11.3953H13.6824C13.2265 11.3953 12.7806 11.6042 12.4436 11.9824L7.50806 17.9826C7.87475 18.1817 8.28109 18.3508 8.97484 18.3508C10.6795 18.3508 10.6795 17.3557 12.394 17.3557C14.0987 17.3557 14.0987 18.3508 15.8132 18.3508C17.5179 18.3508 17.5179 17.3557 19.2225 17.3557C20.9272 17.3557 20.9272 18.3508 22.6417 18.3508C23.8211 18.3508 24.1878 17.8732 24.8617 17.5846L20.7983 12.1515Z" fill="url(#paint5_radial_18_4988)"/>
<path d="M20.7983 12.1515C20.4415 11.6739 19.946 11.3953 19.4108 11.3953H13.6824C13.2265 11.3953 12.7806 11.6042 12.4436 11.9824L7.50806 17.9826C7.87475 18.1817 8.28109 18.3508 8.97484 18.3508C10.6795 18.3508 10.6795 17.3557 12.394 17.3557C14.0987 17.3557 14.0987 18.3508 15.8132 18.3508C17.5179 18.3508 17.5179 17.3557 19.2225 17.3557C20.9272 17.3557 20.9272 18.3508 22.6417 18.3508C23.8211 18.3508 24.1878 17.8732 24.8617 17.5846L20.7983 12.1515Z" fill="url(#paint6_linear_18_4988)"/>
<defs>
<filter id="filter0_i_18_4988" x="7.50806" y="11.3953" width="18.3536" height="7.15557" filterUnits="userSpaceOnUse" color-interpolation-filters="sRGB">
<feFlood flood-opacity="0" result="BackgroundImageFix"/>
<feBlend mode="normal" in="SourceGraphic" in2="BackgroundImageFix" result="shape"/>
<feColorMatrix in="SourceAlpha" type="matrix" values="0 0 0 0 0 0 0 0 0 0 0 0 0 0 0 0 0 0 127 0" result="hardAlpha"/>
<feOffset dx="1" dy="0.2"/>
<feGaussianBlur stdDeviation="1"/>
<feComposite in2="hardAlpha" operator="arithmetic" k2="-1" k3="1"/>
<feColorMatrix type="matrix" values="0 0 0 0 0.619608 0 0 0 0 0.619608 0 0 0 0 0.639216 0 0 0 1 0"/>
<feBlend mode="normal" in2="shape" result="effect1_innerShadow_18_4988"/>
</filter>
<linearGradient id="paint0_linear_18_4988" x1="16.0489" y1="26.989" x2="16.0543" y2="19.239" gradientUnits="userSpaceOnUse">
<stop stop-color="#333036"/>
<stop offset="1" stop-color="#573D6F"/>
</linearGradient>
<linearGradient id="paint1_linear_18_4988" x1="28.9856" y1="27.3015" x2="18.5716" y2="15.4608" gradientUnits="userSpaceOnUse">
<stop stop-color="#654E7C"/>
<stop offset="1" stop-color="#654E7C" stop-opacity="0"/>
</linearGradient>
<linearGradient id="paint2_linear_18_4988" x1="29.1106" y1="30.3215" x2="26.2356" y2="25.239" gradientUnits="userSpaceOnUse">
<stop stop-color="#494155"/>
<stop offset="1" stop-color="#494155" stop-opacity="0"/>
</linearGradient>
<radialGradient id="paint3_radial_18_4988" cx="0" cy="0" r="1" gradientUnits="userSpaceOnUse" gradientTransform="translate(15.7668 18.739) rotate(-72.1811) scale(4.59545 6.68913)">
<stop offset="0.211098" stop-color="#D9D0DF"/>
<stop offset="0.874488" stop-color="#D9D0DF" stop-opacity="0"/>
</radialGradient>
<radialGradient id="paint4_radial_18_4988" cx="0" cy="0" r="1" gradientUnits="userSpaceOnUse" gradientTransform="translate(20.7981 18.6765) rotate(-96.009) scale(4.77624 6.95229)">
<stop offset="0.211098" stop-color="#D9D0DF"/>
<stop offset="0.874488" stop-color="#D9D0DF" stop-opacity="0"/>
</radialGradient>
<radialGradient id="paint5_radial_18_4988" cx="0" cy="0" r="1" gradientUnits="userSpaceOnUse" gradientTransform="translate(23.7355 18.8015) rotate(-122.692) scale(9.95145 6.89482)">
<stop stop-color="#EEEDF5"/>
<stop offset="1" stop-color="#EEEDF5" stop-opacity="0"/>
</radialGradient>
<linearGradient id="paint6_linear_18_4988" x1="10.2143" y1="14.1889" x2="10.685" y2="14.6022" gradientUnits="userSpaceOnUse">
<stop offset="0.44193" stop-color="#A1A1A4"/>
<stop offset="1" stop-color="#A1A1A4" stop-opacity="0"/>
</linearGradient>
</defs>
</svg>

<svg width="100%" height="100%" viewBox="0 0 32 32" xmlns="http://www.w3.org/2000/svg"><path fill="url(#a)" d="m29.986 24.4-5.134-6.835L19.39 14.3l-4.648-.03-7.235 3.712L2.236 24.4v4.856a1.04 1.04 0 0 0 1.03 1.045h25.679c.575 0 1.03-.468 1.03-1.035V24.4z"/><path fill="url(#b)" d="m16.11 16.37.992 3.98c.505 1.643 1.685 1.991 2.973 1.991h.05c.96 0 1.922.637 2.487 1.493l4.4 6.468 1.913.02c.585 0 1.06-.478 1.06-1.065V24.4l-5.133-6.836z"/><path fill="url(#c)" d="m16.11 16.37.992 3.98c.505 1.643 1.685 1.991 2.973 1.991h.05c.96 0 1.922.637 2.487 1.493l4.4 6.468 1.913.02c.585 0 1.06-.478 1.06-1.065V24.4l-5.133-6.836z"/><g filter="url(#d)"><path fill="#DAD3E0" d="M20.798 12.152c-.356-.478-.852-.757-1.387-.757h-5.729c-.456 0-.901.21-1.238.587l-4.936 6c.367.2.773.369 1.467.369 1.705 0 1.705-.995 3.419-.995 1.705 0 1.705.995 3.42.995 1.704 0 1.704-.995 3.409-.995s1.704.995 3.419.995c1.18 0 1.546-.478 2.22-.766z"/></g><path fill="url(#e)" d="M20.798 12.152c-.356-.478-.852-.757-1.387-.757h-5.729c-.456 0-.901.21-1.238.587l-4.936 6c.367.2.773.369 1.467.369 1.705 0 1.705-.995 3.419-.995 1.705 0 1.705.995 3.42.995 1.704 0 1.704-.995 3.409-.995s1.704.995 3.419.995c1.18 0 1.546-.478 2.22-.766z"/><path fill="url(#f)" d="M20.798 12.152c-.356-.478-.852-.757-1.387-.757h-5.729c-.456 0-.901.21-1.238.587l-4.936 6c.367.2.773.369 1.467.369 1.705 0 1.705-.995 3.419-.995 1.705 0 1.705.995 3.42.995 1.704 0 1.704-.995 3.409-.995s1.704.995 3.419.995c1.18 0 1.546-.478 2.22-.766z"/><path fill="url(#g)" d="M20.798 12.152c-.356-.478-.852-.757-1.387-.757h-5.729c-.456 0-.901.21-1.238.587l-4.936 6c.367.2.773.369 1.467.369 1.705 0 1.705-.995 3.419-.995 1.705 0 1.705.995 3.42.995 1.704 0 1.704-.995 3.409-.995s1.704.995 3.419.995c1.18 0 1.546-.478 2.22-.766z"/><path fill="url(#h)" d="M20.798 12.152c-.356-.478-.852-.757-1.387-.757h-5.729c-.456 0-.901.21-1.238.587l-4.936 6c.367.2.773.369 1.467.369 1.705 0 1.705-.995 3.419-.995 1.705 0 1.705.995 3.42.995 1.704 0 1.704-.995 3.409-.995s1.704.995 3.419.995c1.18 0 1.546-.478 2.22-.766z"/><defs><linearGradient id="a" x1="16.049" x2="16.054" y1="26.989" y2="19.239" gradientUnits="userSpaceOnUse"><stop stop-color="#333036"/><stop offset="1" stop-color="#573D6F"/></linearGradient><linearGradient id="b" x1="28.986" x2="18.572" y1="27.302" y2="15.461" gradientUnits="userSpaceOnUse"><stop stop-color="#654E7C"/><stop offset="1" stop-color="#654E7C" stop-opacity="0"/></linearGradient><linearGradient id="c" x1="29.111" x2="26.236" y1="30.322" y2="25.239" gradientUnits="userSpaceOnUse"><stop stop-color="#494155"/><stop offset="1" stop-color="#494155" stop-opacity="0"/></linearGradient><linearGradient id="h" x1="10.214" x2="10.685" y1="14.189" y2="14.602" gradientUnits="userSpaceOnUse"><stop offset=".442" stop-color="#A1A1A4"/><stop offset="1" stop-color="#A1A1A4" stop-opacity="0"/></linearGradient><radialGradient id="e" cx="0" cy="0" r="1" gradientTransform="rotate(-72.181 20.737 -1.445)scale(4.59545 6.68913)" gradientUnits="userSpaceOnUse"><stop offset=".211" stop-color="#D9D0DF"/><stop offset=".874" stop-color="#D9D0DF" stop-opacity="0"/></radialGradient><radialGradient id="f" cx="0" cy="0" r="1" gradientTransform="matrix(-.5 -4.75 6.91409 -.7278 20.798 18.677)" gradientUnits="userSpaceOnUse"><stop offset=".211" stop-color="#D9D0DF"/><stop offset=".874" stop-color="#D9D0DF" stop-opacity="0"/></radialGradient><radialGradient id="g" cx="0" cy="0" r="1" gradientTransform="matrix(-5.375 -8.375 5.80259 -3.72405 23.735 18.802)" gradientUnits="userSpaceOnUse"><stop stop-color="#EEEDF5"/><stop offset="1" stop-color="#EEEDF5" stop-opacity="0"/></radialGradient><filter id="d" width="18.354" height="7.156" x="7.508" y="11.395" color-interpolation-filters="sRGB" filterUnits="userSpaceOnUse"><feFlood flood-opacity="0" result="BackgroundImageFix"/><feBlend in="SourceGraphic" in2="BackgroundImageFix" result="shape"/><feColorMatrix in="SourceAlpha" result="hardAlpha" values="0 0 0 0 0 0 0 0 0 0 0 0 0 0 0 0 0 0 127 0"/><feOffset dx="1" dy=".2"/><feGaussianBlur stdDeviation="1"/><feComposite in2="hardAlpha" k2="-1" k3="1" operator="arithmetic"/><feColorMatrix values="0 0 0 0 0.619608 0 0 0 0 0.619608 0 0 0 0 0.639216 0 0 0 1 0"/><feBlend in2="shape" result="effect1_innerShadow_18_4988"/></filter></defs></svg>
